assets/logos/icons/fullscreen-exit.svg

<svg height="24" viewBox="0 0 24 24" width="24" xmlns="http://www.w3.org/2000/svg"><path d="m8 11h-6v-2h4v-4h2zm-2 4h-4v-2h6v6h-2zm10-2h6v2h-4v4h-2zm6-2h-6v-6h2v4h4z" fill="#492f5c" fill-rule="evenodd"/></svg>

<svg xmlns="http://www.w3.org/2000/svg" width="24" height="24" viewBox="0 0 24 24">
  <path fill="#492F5C" fill-rule="evenodd" d="M8,11 L2,11 L2,9 L6,9 L6,5 L8,5 L8,11 Z M6,15 L2,15 L2,13 L8,13 L8,19 L6,19 L6,15 Z M16,13 L22,13 L22,15 L18,15 L18,19 L16,19 L16,13 Z M22,11 L16,11 L16,5 L18,5 L18,9 L22,9 L22,11 Z"/>
</svg>
